X: 43545
T: You're Only As Good As Your Last Gig
R: jig
M: 6/8
K: Gminor
|:dc|B2 C B,CD|G,B,E (G,B,)E|FDB, BAB|cAF edc|B2 C B,CD|G,B,E G,B,E|
=FEF Ac_e|dBB B2:|F BdB cec|BdB DFD|EGE DFD|CcB AGF|1 BAB cBc|
dcd ede|fba gfe|dcA B2:|2 BdB cec|dfd ege|fba gfe|dcA B2||

